X:63
T:Knights of Saint Patrick, The
Z:Lori Adams
R:jig
M:6/8
K:D
dcd faf|dcd AFD|GBG FAF|EFG ABc|
dcd faf|dcd AFD|GBG FAF|1 EDE D2A:|2 EDE Dfg||
|: aga ded|aba agf|gfg ege|Ace gfe|
dcd ede|fef gfg|afd bge|1 dAF Dfg :|2 dAF D3 ||
"Alternate version from Henrik Norbeck collection"
dcd faf|dcd AFD|GBG FAF|EFG ABc|
dcd faf|dcd AFD|GBG FAF|1 ECE D3:|2 ECE D2f||
~a3 fdf|aba agf|~g3 ece|Ace gfg|~a3 fdf|aba afg|afd bge|dAF D2f|
~a3 fdf|aba agf|~g3 ece|Ace gfe|dcd ede|fef gfg|afd bge|dAF D3||
